X: 367
T:Mon seul plaisir
N: Derived from Jos2826-Mon_seul_plaisir.krn
C: Josquin des Prez
%%abc-version 2.0
%%abcx-abcm2ps-target-version 5.9.1 (29 Sep 2008)
%%abc-creator hum2abc beta
%%abcx-conversion-date 2019/02/12 16:15:54
%%abc-edited-by Jesse Rodin
%%abc-edited-by Chris Gage 06-08-2012
%%abcx-initial-encoding-date 2012/06/10/
%%humdrum-veritas 2622844817
%%humdrum-veritas-data 4021401748
%%linebreak <none>
%%barnumbers 0
L: 1/4
M: 2/1
Q: 1/2=120
%%staves [1 2 3 4]
V: 1 clef=treble
V: 2 clef=treble-8
V: 3 clef=treble-8
V: 4 clef=bass
K: C
[V:1] z8 | 
[V:2] G3ABcd2- | 
[V:3] G8 | 
[V:4] G,8 | 
[V:1] z8 | 
[V:2] d2cBA4 | 
[V:3] F4F4 | 
[V:4] D,4D,4 | 
[V:1] z8 | 
[V:2] G4e4- | 
[V:3] G4c4- | 
[V:4] E,4C,4 | 
[V:1] z8 | 
[V:2] e2dcd2ed | 
[V:3] c2BAB2cB | 
[V:4] G,8 | 
[V:1] G8 | 
[V:2] e2d4c2 | 
[V:3] c2B4AG | 
[V:4] C,2G,3F,E,2 | 
[V:1] F4F4 | 
[V:2] d4dcBA | 
[V:3] A4d4- | 
[V:4] D,4z2D,2 | 
[V:1] G4c4 | 
[V:2] BGg4f2 | 
[V:3] d2cBc2dc | 
[V:4] G,4A,4 | 
[V:1] c4B4 | 
[V:2] g4z2g2 | 
[V:3] d8 | 
[V:4] G,8 | 
[V:1] c4c2A2- | 
[V:2] e3fg2c2 | 
[V:3] c8 | 
[V:4] C,3D,E,2F,2- | 
[V:1] A2GFF2ED | 
[V:2] d8 | 
[V:3] A4B4 | 
[V:4] F,E,D,C,D,4 | 
[V:1] E6F2 | 
[V:2] G8- | 
[V:3] c8 | 
[V:4] C,4C,4- | 
[V:1] G2A2B4- | 
[V:2] G4g3f | 
[V:3] c4d4 | 
[V:4] C,2B,,A,,G,,2G,2- | 
[V:1] B2A2A4- | 
[V:2] g2e4d2 | 
[V:3] d2c4BA | 
[V:4] G,2A,2F,4 | 
[V:1] A2^G^FG4 | 
[V:2] e8- | 
[V:3] B2c2B4 | 
[V:4] E,8 | 
[V:1] A8 | 
[V:2] e8- | 
[V:3] A4z2A2 | 
[V:4] A,,8- | 
[V:1] z8 | 
[V:2] e8 | 
[V:3] c4c4 | 
[V:4] A,,4z2A,,2 | 
[V:1] z8 | 
[V:2] A6B2 | 
[V:3] d4d4 | 
[V:4] D,3E,F,2G,2 | 
[V:1] z8 | 
[V:2] c2B2GABc | 
[V:3] e6dc | 
[V:4] C,2G,4F,E, | 
[V:1] z8 | 
[V:2] d2G4F2 | 
[V:3] B2c4B2 | 
[V:4] D,2C,2D,4 | 
[V:1] E8 | 
[V:2] G4z2c2 | 
[V:3] c8 | 
[V:4] C,8 | 
[V:1] G4G4 | 
[V:2] e4e2fe | 
[V:3] c4c4 | 
[V:4] z4C,4 | 
[V:1] A4A4 | 
[V:2] f4f2gf | 
[V:3] c4c4 | 
[V:4] F,4A,4 | 
[V:1] B3cB2A2- | 
[V:2] g3fg2f2- | 
[V:3] d3cd4 | 
[V:4] G,3A,G,2D,2 | 
[V:1] A2G4^F2 | 
[V:2] f2d3cBA | 
[V:3] cBAGA4 | 
[V:4] F,2G,2D,4 | 
[V:1] G8 :|]  
[V:2] B8 :|]  
[V:3] G8 :|]  
[V:4] G,,8 :|]  
[V:1] z8 | 
[V:2] z8 | 
[V:3] z8 | 
[V:4] C,6B,,2 | 
[V:1] z8 | 
[V:2] c6B2 | 
[V:3] z8 | 
[V:4] A,,4G,,4 | 
[V:1] z8 | 
[V:2] A4G4 | 
[V:3] z8 | 
[V:4] C,6B,,2- | 
[V:1] z8 | 
[V:2] c6B2- | 
[V:3] z8 | 
[V:4] B,,2A,,4G,,2 | 
[V:1] z8 | 
[V:2] B2A2A4- | 
[V:3] z8 | 
[V:4] A,,4C,4 | 
[V:1] z8 | 
[V:2] A4^G4 | 
[V:3] z8 | 
[V:4] B,,8 | 
[V:1] z8 | 
[V:2] A6G2 | 
[V:3] c6B2 | 
[V:4] A,,8 | 
[V:1] c6B2 | 
[V:2] A2GFE4 | 
[V:3] A4G4 | 
[V:4] z8 | 
[V:1] A4G4 | 
[V:2] e6dc | 
[V:3] c4c2B2- | 
[V:4] A,,4E,4 | 
[V:1] c4c2B2- | 
[V:2] e2f2gfed | 
[V:3] B2A4G2 | 
[V:4] z2A,,2E,4 | 
[V:1] B2A2A4- | 
[V:2] c3de2f2 | 
[V:3] A4c4 | 
[V:4] F,2A,4F,2 | 
[V:1] A4^G4 | 
[V:2] d2f2e4 | 
[V:3] B8 | 
[V:4] G,2D,2E,4 | 
[V:1] A8 | 
[V:2] e8- | 
[V:3] A8 | 
[V:4] A,,8 | 
[V:1] z8 | 
[V:2] e8 | 
[V:3] z2A2c2c2 | 
[V:4] A,,4z2A,,2 | 
[V:1] z8 | 
[V:2] z2E2G2G2 | 
[V:3] c3de2e2 | 
[V:4] C,2C,2C,3D, | 
[V:1] z8 | 
[V:2] G2A2B2d2- | 
[V:3] e2dcB2A2- | 
[V:4] E,2F,2G,2F,2- | 
[V:1] z8 | 
[V:2] d2c4B2 | 
[V:3] AGG4F2 | 
[V:4] F,E,D,C,D,4 | 
[V:1] z4E4 | 
[V:2] c4z4 | 
[V:3] G8 | 
[V:4] C,8- | 
[V:1] G4G4 | 
[V:2] c4cBcd | 
[V:3] z4E3F | 
[V:4] C,8 | 
[V:1] G6A2 | 
[V:2] e2f2g2fe | 
[V:3] G2A2B2c2 | 
[V:4] z4G,4- | 
[V:1] B4d4- | 
[V:2] d2g3ff2 | 
[V:3] d2e2fedc | 
[V:4] G,2F,E,D,4 | 
[V:1] d4c4- | 
[V:2] d2g4f2 | 
[V:3] B4c4 | 
[V:4] G,4A,4 | 
[V:1] c4B4 | 
[V:2] g8 | 
[V:3] d8 | 
[V:4] G,8 | 
[V:1] c8 | 
[V:2] z4g3f | 
[V:3] c8 | 
[V:4] C,8 | 
[V:1] z8 | 
[V:2] e2d2c2B2- | 
[V:3] z8 | 
[V:4] G,3F,E,2D,2 | 
[V:1] z8 | 
[V:2] BAA4^G2 | 
[V:3] z8 | 
[V:4] C,2A,,2B,,4 | 
[V:1] c4cBAG | 
[V:2] A8 | 
[V:3] e6d2 | 
[V:4] A,,8- | 
[V:1] A4G4 | 
[V:2] e6d2 | 
[V:3] c4B4 | 
[V:4] A,,4E,4 | 
[V:1] F4E4- | 
[V:2] c6B2 | 
[V:3] A6G2 | 
[V:4] F,4C,4 | 
[V:1] E2D2D4- | 
[V:2] A4B4 | 
[V:3] F4G4 | 
[V:4] D,4G,,4 | 
[V:1] D4^C4 | 
[V:2] A8 | 
[V:3] E8 | 
[V:4] A,,8 | 
[V:1] D8 | 
[V:2] z2D2G3A | 
[V:3] z4D4 | 
[V:4] D,4G,,4 | 
[V:1] z8 | 
[V:2] B2B2B2c2 | 
[V:3] G2G2G2A2 | 
[V:4] z2G,,2G,,2G,,2 | 
[V:1] z4D4 | 
[V:2] d2e2f2ed | 
[V:3] B6AB | 
[V:4] G,2F,E,D,2D,2 | 
[V:1] G4G4 | 
[V:2] e6dc | 
[V:3] c6BA | 
[V:4] C,6C,2 | 
[V:1] G4A4 | 
[V:2] d8- | 
[V:3] B6A2- | 
[V:4] G,3F,D,4 | 
[V:1] B4d4 | 
[V:2] d4z2D2 | 
[V:3] A2G2G4- | 
[V:4] G,,4B,,4 | 
[V:1] c6BA | 
[V:2] E2C4DC | 
[V:3] G4^F4 | 
[V:4] A,,8 | 
[V:1] B4B2A2- | 
[V:2] D2E2D4 | 
[V:3] G4A4 | 
[V:4] G,,2G,4F,2 | 
[V:1] A2G2G4- | 
[V:2] z2d4c2 | 
[V:3] B4G4 | 
[V:4] G,4E,4 | 
[V:1] G2^FEF4 | 
[V:2] d8- | 
[V:3] A8 | 
[V:4] D,8 | 
[V:1] G2D2G2G2 | 
[V:2] d4z2D2 | 
[V:3] G2B2B2B2 | 
[V:4] G,,4z2G,,2 | 
[V:1] G2A2B2d2 | 
[V:2] E2E2D2D2 | 
[V:3] c2A4G2- | 
[V:4] C,2C,2B,,2B,,2 | 
[V:1] cBAGB2A2- | 
[V:2] E2C2D2d2- | 
[V:3] G2F2G2A2 | 
[V:4] A,,2A,,2G,,2F,2 | 
[V:1] A2G4^F2 | 
[V:2] dc/B/e2dcBA | 
[V:3] B2c2A4 | 
[V:4] G,2C,2D,4 | 
[V:1] G8 |]  
[V:2] B8 |]  
[V:3] G8 |]  
[V:4] G,,8 |]  



